!!!OTL: 685a. Schwere Trennung.
!!!ARE: Europa, Mitteleuropa, Deutschland, Hessen, Homburg
!!!SCT: E0685
!!!TXL: @@DE
!!!YEM: Copyright 1995, estate of Helmut Schaffrath.
**kern	**text
*ICvox	*
*M3/4	*
*k[f#]	*
*G:	*
!LO:TX:a:t=Mäßig langsam.	!
!LO:TX:a:t=Variante aus Homburg	!
{8gL	Jch
8bJ	.
=1	=1
4dd	will
4dd	mich
8eeL	um-
8ccJ	.
=2	=2
8ccL	-ſchau-
8bJ	.
4b}	-en
{(8ccL	nach
8aJ)	.
=3	=3
4dd	Tint
8bL	und
8gJ	.
4a	Pa-
=4	=4
2g}	-pier.
{8gL	Meinem
8bJ	.
=5	=5
4dd	Schätʒ-
4dd	-chen
8eeL	ʒu
8ccJ	.
=6	=6
8ccL	ſchrei-
8bJ	.
4b}	-ben
{(8ccL	den
8cJ)	.
=7	=7
4dd	Ab-
8bL	-ſchied
8gJ	.
4a	an_die
=8	=8
2g}	Thür;
{8gL	wol
8bJ	.
=9	=9
4dd	a-
8bL	-ne
8aJ	.
8gL	die
8bJ	.
=10	=10
4a	Thü-
4a}	-re,
{8gL	wol
8bJ	.
=11	=11
4dd	a-
8bL	-ne
8aJ	.
8gL	das
8bJ	.
=12	=12
2a}	Haus
{8gL	Ach
8bJ	.
=13	=13
4dd	Herʒ-
4dd	-chen
8eeL	ſchönſtes
8ccJ	.
=14	=14
8ccL	Schätʒchen,
8bJ	.
4b}	.
{8ddL	unſre
8bJ	.
=15	=15
8bL	Freundſchaft
8aJ	.
8ccL	.
8aJ	.
8gL	iſt
8f#J	.
=16	=16
2g}	aus!
==	==
!!!AGN: Liebes - Lied, Leid, Klage, Trennung
!!!ONB: ESAC (Essen Associative Code) Database: ERK2
!!!AMT: simple triple
!!!AIN: vox
!!!EED: Helmut Schaffrath
!!!EEV: 1.0
!!!GTL: Liebeslieder [Neuere (aus dem 18. bis 19. Jahrh.) - Liebesleid] 678-740
!!!URL-scan: https://rosdok.uni-rostock.de/mcrviewer/recordIdentifier/rosdok_ppn745177662/iview2/phys_0487.iview2?x=193.8995864193107&y=1996.4849463638384&scale=0.7029437510502773&rotation=0&layout=singlePageLayout
!!!ENC: Anna Maria Matuszewska
!!!EEV: 2024/12/16
*-	*-
